ufans-frontend-package/public/assets/images/new-home/icon/fashion.svg

<svg width="84" height="96" viewBox="0 0 84 96" fill="none" xmlns="http://www.w3.org/2000/svg">
<path d="M65.8653 39.3204V30.3711L74.8146 27.3879L77.7978 12.4723C72.5547 8.19206 65.5724 2.99269 56.7134 0C55.547 7.07475 49.4056 12.4721 42.0006 12.4721C34.5955 12.4721 28.454 7.07475 27.2875 0C18.4283 2.99269 11.4458 8.19206 6.20258 12.4721L9.1857 27.3877L18.1351 30.3709V39.3202L0.236328 84.0675C0.236328 84.0675 12.1688 96 42.0003 96C71.8317 96 83.7642 84.0675 83.7642 84.0675L65.8653 39.3204ZM16.9428 20.5401L16.061 16.1304C18.1422 14.598 20.3901 13.0957 22.8186 11.7501C23.8812 13.1865 25.1078 14.5082 26.4811 15.6848C30.7983 19.3841 36.3096 21.4217 41.9999 21.4217C47.6901 21.4217 53.2019 19.3845 57.5191 15.6848C58.8925 14.5082 60.1191 13.1861 61.1815 11.7501C63.6104 13.0961 65.8581 14.598 67.9392 16.1304L67.0574 20.5401L56.9157 23.9205V36.6954C56.164 33.2237 54.1563 31.2159 54.1563 31.2159C50.7927 31.2159 47.8863 33.0392 45.7591 34.9562C44.7959 34.1773 43.5695 33.7093 42.2339 33.7093C40.7838 33.7093 39.4623 34.26 38.4665 35.163C36.3209 33.1727 33.328 31.2159 29.8441 31.2159C29.8441 31.2159 27.8363 33.2237 27.0846 36.6954V23.9205L16.9428 20.5401ZM42.0006 87.0506C28.8038 87.0506 19.8115 84.4652 14.5919 82.2962C13.3077 81.7627 12.1836 81.228 11.2141 80.7204L26.4447 42.6441L26.9701 41.3312C27.6006 45.1779 29.8443 47.4246 29.8443 47.4246C33.3286 47.4246 36.3213 45.468 38.4666 43.4779C39.4625 44.3809 40.784 44.9312 42.2341 44.9312C43.5696 44.9312 44.7961 44.4638 45.7593 43.6843C47.8868 45.6015 50.7931 47.4246 54.1565 47.4246C54.1565 47.4246 56.4001 45.1779 57.0306 41.3312L57.556 42.6441L72.7866 80.7204C71.8171 81.2278 70.693 81.7627 69.4092 82.2962C64.1898 84.4652 55.1973 87.0506 42.0006 87.0506Z" fill="#6661E7"/>
</svg>

<svg xmlns="http://www.w3.org/2000/svg" width="83.528" height="96" viewBox="0 0 83.528 96">
  <path id="fashion" d="M65.865,39.32V30.371l8.949-2.983L77.8,12.472C72.555,8.192,65.572,2.993,56.713,0A14.917,14.917,0,0,1,42,12.472,14.917,14.917,0,0,1,27.288,0C18.428,2.993,11.446,8.192,6.2,12.472L9.186,27.388l8.949,2.983V39.32L.236,84.067S12.169,96,42,96,83.764,84.067,83.764,84.067ZM16.943,20.54l-.882-4.41a62.586,62.586,0,0,1,6.758-4.38,23.891,23.891,0,0,0,3.663,3.935A23.865,23.865,0,0,0,42,21.422a23.864,23.864,0,0,0,15.519-5.737,23.894,23.894,0,0,0,3.662-3.935,62.6,62.6,0,0,1,6.758,4.38l-.882,4.41L56.916,23.92V36.7a11.842,11.842,0,0,0-2.759-5.479c-3.364,0-6.27,1.823-8.4,3.74a5.608,5.608,0,0,0-7.293.207c-2.146-1.99-5.139-3.947-8.622-3.947a11.841,11.841,0,0,0-2.76,5.479V23.92ZM42,87.051c-13.2,0-22.189-2.585-27.409-4.754-1.284-.534-2.408-1.068-3.378-1.576L26.445,42.644l.525-1.313a11.954,11.954,0,0,0,2.874,6.093c3.484,0,6.477-1.957,8.622-3.947a5.608,5.608,0,0,0,7.293.206c2.127,1.917,5.034,3.74,8.4,3.74a11.954,11.954,0,0,0,2.874-6.093l.525,1.313L72.787,80.72c-.969.507-2.094,1.042-3.377,1.576C64.19,84.465,55.2,87.051,42,87.051Z" transform="translate(-0.236)" fill="#e44499"/>
</svg>
